X:1
T:Çiuri, çiuri
T:Çiuri, çiuri
T:ritornello popolare
T:Francesco Paolo Frontini (1860-1939)
T:Anonimo
T:Ciuri, ciuri, ciuri di primavera! Si tu non m'ami ju moru di pena. Ciuri, ciuri, ciuri di paparina! Moru di sonnu pri 'na signurina. Ciuri, ciuri, ciuri di chistu ciuri! Ti l'haiu pirchì si' lu primu amuri. Ciuri, ciuri, ciuri di granatu! Cu' campa senza mogghi è scunsulatu. Ciuri, ciuri, ciuri di patata! Quantu beni, cci vogghiu a 'na criata. .
T:Non cantu né p’amuri e né pp’amanti picchì mancu mi passi ppi la menti ma pè l’amuri miu ca nun mi voli ma pè l’amuri miu ca nun mi senti. Ciuri ciuri,ciuri di tuttu l’annu l’amuri ca mi dasti ti lu tornu. Ciuri ciuri,ciuri di tuttu l’annu l’amuri ca mi dasti ti lu tornu. Ciuri di gelsuminu arrampicanti mi scialu ridu e cantu allegramenti tutti li notti li passu cca avanti ppi fatti li dispetti eternamenti. Ciuri ciuri,ciuri di tuttu l’annu l’amuri ca mi dasti ti lu tornu. Ciuri ciuri,ciuri di tuttu l’annu l’amuri ca mi dasti ti lu tornu…
T:alternativo
C:Francesco Paolo Frontini (Catania, 6 agosto 1860 – Catania, 26 luglio 1939)
Z:Anonimo
%%score 1 { ( 2 5 ) | ( 3 4 ) }
L:1/8
Q:1/4=120
M:2/4
K:C
V:1 treble nm="Voice"
V:2 treble nm="Piano"
V:5 treble 
V:3 bass 
V:4 bass 
V:1
"^All.tto Sostenuto" z | z4 | z4 | z4 |!p!!>(! (!>!e2 c3/2 B/) | .A .A!>)! z (c | %6
w: ||||Ciu\- ri, *|ciu\- ri ciu\-|
!<(! A) (c B A)!<)! |!>(! ^G B z2!>)! |!>(! (!>!f2 e3/2 ^d/) | .e!>)! .e z e- |!<(! e (d c B)!<)! | %11
w: ri di tut\- ru|l'an\- nu!|Lu me\- li|si\- ti e|lu pa\- ni cciab\-|
 .A .A z2 |!p!!>(! (!>!e2 c3/2 B/) | .A .A!>)! z (c |!<(! A) (c B A)!<)! |!>(! ^G B z2!>)! | %16
w: va\- gnu.|Cio\- ri, *|ciu\- ri ciu\-|ri di ca\- mo\-|mid\- da!|
!>(! (!>!f2 e3/2 ^d/) | .e!>)! .e z e- |!<(! e (d c B)!<)! |!>(! A2 z2!>)! | z4 | z4 | z4 | z4 | %24
w: sta not\- ti|mi~'assun\- nai d'a\-|ma\- ri a Pid\-|da.|||||
 z4 | z4 | z4 | z4!D.C.! |] %28
w: ||||
V:2
 z | z4 | z4 | z4 |!p!!>(! (!>!e2 c>B) | .A.A!>)! z (c |!<(! A)(cBA)!<)! |!>(! ^GB z2!>)! | %8
!>(! (!>!f2 e>^d) | .e!>)!.e z e- |!<(! e(dcB)!<)! | .A.A z2 |!p!!>(! (!>!e2 c>B) | .A.A!>)! z (c | %14
!<(! A)(cBA)!<)! |!>(! ^GB z2!>)! |!>(! (!>!f2 e>^d) | .e!>)!.e z e- |!<(! e(dcB)!<)! | %19
!>(! A2 z2!>)! |!<(! (B2 c>d)!<)! |!>(! (g/f/!>)!e) z2 |!<(! (^c2 d>e)!<)! |!>(! (a/g/!>)!f) z2 | %24
!f! (f2 e>d | d=c) z (c | =BdcB | A) z!ff! !>![Acea] z |] %28
V:3
 (!>!E,, | A,,).[E,A,C].[E,A,C] (!>!E,, | A,,).[E,A,C].[E,A,C] (!>!E,, | z4 | %4
 A,,).[E,A,C].[E,A,C] (!>!E,, | A,,).[E,A,C].[E,A,C] (!>!E,, | A,,).[E,A,C].[E,A,C] (!>!E,, | %7
 A,,).[E,^G,D].[E,G,D] (!>!E,, | ^G,,).[E,B,D].[E,B,D] (!>!E,, | ^G,,).[E,B,D].[E,B,D] (!>!E,, | %10
 ^G,,).[E,B,D].[E,B,D] (!>!E,, | A,,).[E,A,C].[E,A,C] (!>!E,, | A,,) z z2 | %13
 A,,.[E,A,C].[E,A,C] (!>!E,, | C,).[E,A,C].[E,A,C] (!>!E,, | B,,).[E,^G,D].[E,G,D] (!>!E,, | %16
 ^G,,)[E,B,D][E,B,D] (!>!E,, | ^G,,)[E,B,D][E,B,D] (!>!E,, | ^G,,)[E,B,D][E,B,D] (!>!E,, | %19
 A,,)[E,A,C][E,A,C] z | (=G,2 F,2) | (E,2 C,2) | (A,2 G,2) | (F,2 D,2) | D,[_B,D] F,[B,D] | %25
 E,[A,=C] E,[A,C] | E,[B,D] E,[B,D] | [A,C] z !>![A,,C,E,A,] z |] %28
V:4
 x | x4 | x4 | x4 | x4 | x4 | x4 | x4 | x4 | x4 | x4 | x4 | x4 | x4 | x4 | x4 | x4 | x4 | x4 | x4 | %20
 G,[B,D] F,[G,B,D] | E,[G,C] C,[E,G,C] | A,[^CE] G,[A,CE] | F,[A,D] D,[F,A,D] | x4 | x4 | x4 | %27
 x4 |] %28
V:5
 x | x4 | x4 | x4 | x4 | x4 | x4 | x4 | x4 | x4 | x4 | x4 | x4 | x4 | x4 | x4 | x4 | x4 | x4 | x4 | %20
 x4 | x4 | x4 | x4 | z [F_B] z [FB] | z [EA] z [EA] | z [E^G] z [EG] | E x3 |] %28

